!!!OTL: 1098. Schnuettelputt-Haeusel. / [Luegenmaerchen.]
!!!ODT: 1807 (vor)
!!!ARE: Europa, Mitteleuropa, Deutschland
!!!SCT: E1098
!!!TXL: @@DE
!!!YEM: Copyright 1995, estate of Helmut Schaffrath.
**kern	**text
*ICvox	*
*M6/8	*
*k[f#c#]	*
*D:	*
!LO:TX:a:t=Schnell.	!
!LO:TX:a:t=Mel. vor 1807.	!
{8a	Refr._So
=1	=1
8a	geht
8g	es
8f#	in
8f#	Schnütʒel-
8e	.
8f#	-putʒ
=2	=2
(4g	Häu-
8f#)	.
4e}	-ſel,
{8a	da
=3	=3
8a	ſin-
8g	-gen
8f#	und
8f#	tan-
8e	-ʒen
8f#	die
=4	=4
(4g	Mäu-
8f#)	.
4e}	-ſel,
{8a	und
=5	=5
8a	bel-
8f#	-len
8d	die
8b/	Schnecken
8g	.
8e	im
=6	=6
(4f#	Häu-
8e)	.
4d;}	-ſel.
{8e	Jn
=7	=7
8e	Schmütʒel-
8f#	.
8g#	-putʒ
8a	Häu-
8b/	-ſel
8cc#	da
=8	=8
8b	geht
8cc#	es
8dd	ſehr
4cc#}	toll,
{8e	da
=9	=9
8e	ſau-
8f#	-fen
8g#	die
8a	Ti-
8b/	-ſche
8cc#	und
=10	=10
8b	Bän-
8cc#	-ke
8dd	ſich
4cc#}	voll,
{8ee	Pan-
=11	=11
(8eeL	-tof-
8cc#J)	.
8a	-feln
8ff#	un-
8dd	-ter
8b	dem
=12	=12
(4.f#	Bet-
4.g#)	.
=13	=13
4.a;	-te.
4r}	.
==	==
!!!AGN: Maerchen - Lied, Luegen - Maerchen
!! modulierend
!!!ONB: ESAC (Essen Associative Code) Database: ERK3
!!!AMT: compound duple
!!!AIN: vox
!!!EED: Helmut Schaffrath
!!!EEV: 1.0
!!!GTL: Raethsel-, Wett- und Wunschlieder, nebst Luegenmaerchen.
!!!URL-scan: https://rosdok.uni-rostock.de/mcrviewer/recordIdentifier/rosdok_ppn745177999/iview2/phys_0047.iview2?x=187.70929000834008&y=1697.39502906517&scale=0.701185927818147&rotation=0&layout=singlePageLayout
!!!ENC: Anna Maria Matuszewska
!!!EEV: 2024/12/23
*-	*-
